client-data/tools/mathematics/icon.svg

<?xml version="1.0" encoding="UTF-8" standalone="no"?>
<svg
   xmlns:dc="http://purl.org/dc/elements/1.1/"
   xmlns:cc="http://creativecommons.org/ns#"
   xmlns:rdf="http://www.w3.org/1999/02/22-rdf-syntax-ns#"
   xmlns:svg="http://www.w3.org/2000/svg"
   xmlns="http://www.w3.org/2000/svg"
   xmlns:sodipodi="http://sodipodi.sourceforge.net/DTD/sodipodi-0.dtd"
   xmlns:inkscape="http://www.inkscape.org/namespaces/inkscape"
   inkscape:version="1.0 (4035a4fb49, 2020-05-01)"
   sodipodi:docname="icon.svg"
   id="svg39"
   version="1.1"
   aria-hidden="true"
   viewBox="0 -1562.5 2000 2000"
   focusable="false"
   role="img"
   height="2000"
   width="2000">
  <metadata
     id="metadata43">
    <rdf:RDF>
      <cc:Work
         rdf:about="">
        <dc:format>image/svg+xml</dc:format>
        <dc:type
           rdf:resource="http://purl.org/dc/dcmitype/StillImage" />
        <dc:title></dc:title>
      </cc:Work>
    </rdf:RDF>
  </metadata>
  <sodipodi:namedview
     inkscape:current-layer="svg39"
     inkscape:cy="1531.1498"
     inkscape:cx="949.24944"
     inkscape:zoom="0.17207222"
     units="mm"
     showgrid="false"
     id="namedview41"
     inkscape:window-height="480"
     inkscape:window-width="640"
     inkscape:pageshadow="2"
     inkscape:pageopacity="0"
     guidetolerance="10"
     gridtolerance="10"
     objecttolerance="10"
     borderopacity="1"
     bordercolor="#666666"
     pagecolor="#ffffff" />
  <defs
     id="defs7">
    <path
       d="m 60,948 q 3,2 605,2 h 602 l 58,-135 q 59,-138 63,-146 h -40 l -7,14 q -21,41 -56,78 -50,48 -111,77 -61,29 -141,43 -80,14 -151,17 -71,3 -183,4 H 574 543 251 l 8,-11 q 463,-633 465,-639 1,-2 0,-6 -3,-3 -264,-302 L 196,-356 q 0,-1 211,-1 52,0 141,0 89,0 128,-1 136,0 220,5 84,5 167,21 83,16 141,49 58,33 103,87 21,26 41,72 h 40 q 0,-1 -7,-21 -7,-20 -25,-65 -18,-45 -31,-84 l -58,-155 -601,-1 q -602,0 -605,2 -6,2 -6,9 0,2 2,6 l 533,610 q 0,1 -33,45 -33,44 -105,144 -72,100 -130,178 L 56,909 55,924 q 0,21 5,24 z"
       id="MJX-4-TEX-LO-2211" />
    <path
       d="m 21,287 q 1,6 3,16 2,10 12,38 10,28 20,47 10,19 33,37 23,18 46,17 36,0 60,-18 24,-18 30,-34 6,-16 6,-21 0,-2 1,-2 l 11,11 q 61,64 139,64 54,0 87,-27 33,-27 34,-79 1,-52 -38,-157 -39,-105 -38,-127 0,-26 17,-26 6,0 9,1 29,5 52,38 23,33 35,80 2,8 20,8 20,0 20,-8 0,-1 -4,-15 -8,-29 -22,-57 -14,-28 -46,-56 -32,-28 -69,-27 -47,0 -68,27 -21,27 -21,56 0,19 36,120 36,101 37,152 0,59 -44,59 h -5 Q 288,404 229,303 L 222,291 189,157 Q 156,26 151,16 138,-11 108,-11 95,-11 87,-5 79,1 76,7 q -3,6 -2,10 0,13 38,163 38,150 40,163 1,5 1,23 0,39 -24,39 -38,0 -63,-100 -6,-20 -6,-21 -2,-6 -19,-6 H 27 q -6,6 -6,9 z"
       id="MJX-4-TEX-I-1D45B" />
    <path
       d="m 56,347 q 0,13 14,20 h 637 q 15,-8 15,-20 0,-11 -14,-19 L 390,327 H 72 q -16,5 -16,20 z m 0,-194 q 0,15 16,20 h 636 q 14,-10 14,-20 0,-13 -15,-20 H 70 q -14,7 -14,20 z"
       id="MJX-4-TEX-N-3D" />
    <path
       d="m 213,578 -13,-5 q -14,-5 -40,-10 -26,-5 -58,-7 H 83 v 46 h 19 q 47,2 87,15 40,13 56,24 16,11 28,22 2,3 12,3 9,0 17,-6 V 361 l 1,-300 q 7,-7 12,-9 5,-2 24,-4 19,-2 62,-2 h 26 V 0 H 416 Q 395,3 257,3 121,3 100,0 H 88 v 46 h 26 q 22,0 38,0 16,0 25,1 9,1 16,3 7,2 8,2 1,0 6,5 5,5 6,4 z"
       id="MJX-4-TEX-N-31" />
    <path
       d="m 55,217 q 0,88 56,156 56,68 143,69 88,0 165,-61 38,-31 74,-78 l 14,-19 7,10 q 104,148 233,148 86,0 141,-68 55,-68 56,-160 0,-86 -55,-155 -55,-69 -146,-70 -86,0 -163,61 -38,31 -74,78 l -14,19 -7,-10 Q 381,-11 252,-11 166,-11 111,57 56,125 55,217 Z m 852,0 q 0,68 -38,124 -38,56 -108,56 -21,0 -41,-5 -20,-5 -38,-14 -18,-9 -34,-19 -16,-10 -29,-24 -13,-14 -25,-25 -12,-11 -20,-25 -8,-14 -15,-22 -7,-8 -11,-17 l -5,-8 31,-40 q 31,-40 48,-60 17,-20 42,-44 25,-24 50,-33 25,-9 51,-10 62,0 102,49 40,49 40,117 z M 92,214 q 0,-69 39,-125 39,-56 108,-56 118,0 217,160 l -31,40 q -61,79 -91,104 -49,43 -101,43 -62,0 -101,-49 Q 93,282 92,214 Z"
       id="MJX-4-TEX-N-221E" />
  </defs>
  <path
     style="stroke-width:12.9698"
     d="m 790.00815,-934.9057 7.2891,154.6126 h -18.5727 c -3.5019,-27.2106 -8.3137,-46.6134 -14.617,-58.3899 -9.9608,-18.7413 -23.3845,-32.5152 -39.9728,-41.4773 -16.744,-8.9492 -38.6499,-13.4367 -65.8475,-13.4367 h -92.9024 v 503.6549 c 0,40.47863 4.4746,65.67889 13.1124,75.82124 12.2694,13.60529 31.3479,20.38847 56.8984,20.38847 h 22.9046 v 17.91125 h -279.5374 v -17.91125 h 23.3975 c 27.859,0 47.612,-8.45628 59.2199,-25.38183 7.1334,-10.28502 10.7909,-33.99375 10.7909,-70.82788 V -893.597 h -79.2972 c -30.6864,0 -52.5924,2.3216 -65.5232,6.7962 -16.9126,6.1476 -31.3479,18.0928 -43.2931,35.4982 -11.9451,17.574 -19.0785,41.1401 -21.3871,71.0095 h -18.4171 l 7.7948,-154.6126 z"
     id="path8" />
  <path
     style="stroke-width:12.9698"
     d="m 869.99275,-718.7386 v 249.7717 h 138.89315 c 36.1208,0 60.1408,-5.4214 72.2157,-16.2381 16.2381,-14.3187 25.1483,-39.4411 27.0549,-75.5619 h 17.172 v 220.03208 h -17.172 c -4.306,-30.69944 -8.7416,-50.43938 -13.0476,-59.19398 -5.577,-10.7909 -14.7985,-19.4028 -27.5089,-25.6153 -12.7363,-6.1866 -32.2947,-9.3772 -58.7141,-9.3772 H 869.99275 v 208.39823 c 0,27.98876 1.297,45.044 3.6704,51.07494 2.5291,6.05688 6.8351,10.81678 13.0476,14.48722 6.2125,3.50183 18.1317,5.23978 35.4594,5.23978 h 107.23395 c 35.6409,0 61.7361,-2.38643 77.8186,-7.47057 16.2122,-4.94148 31.6332,-14.64287 46.6133,-29.28573 19.2471,-19.24713 38.9612,-48.36426 59.1681,-87.19573 h 18.6245 l -54.4081,158.47755 H 690.07615 v -17.17197 h 22.4377 a 88.674283,88.674283 0 0 0 42.3074,-10.81679 c 10.0256,-4.94148 16.718,-12.41205 20.3625,-22.29501 3.5018,-9.99969 5.2398,-30.37519 5.2398,-61.07463 V -643.1768 c 0,-40.0895 -3.9558,-64.745 -12.0878,-74.1352 -11.1411,-12.412 -29.7397,-18.6245 -55.8349,-18.6245 h -22.4377 v -17.3406 h 487.14435 l 6.9907,138.4133 h -18.2874 c -6.5367,-33.2415 -13.6831,-56.0034 -21.6335,-68.4025 -7.9505,-12.4121 -19.5844,-21.9578 -35.1611,-28.4816 -12.412,-4.6043 -34.3698,-6.9907 -65.7048,-6.9907 z"
     id="path10" />
  <path
     style="stroke-width:12.9698"
     d="m 1525.8867,-640.4791 140.4885,209.332 c 38.8574,57.9619 67.6892,94.53667 86.638,109.86693 18.7672,15.30432 42.6575,23.70873 71.632,25.35589 v 17.78155 h -280.7954 v -17.78155 c 18.5986,-0.32424 32.4503,-2.30862 41.4903,-5.92718 a 39.570753,39.570753 0 0 0 16.6402,-13.17728 c 4.28,-5.92718 6.407,-12.03594 6.407,-18.13173 a 62.254872,62.254872 0 0 0 -4.28,-22.21721 c -2.3086,-5.4473 -11.1929,-19.61032 -26.4972,-42.47602 l -111.0342,-167.8417 -137.0126,175.5717 c -14.4872,18.76726 -23.2288,31.12746 -26.0173,37.39185 -2.9701,6.25143 -4.4616,12.84007 -4.4616,19.58435 0,10.38878 4.4616,18.79319 13.0216,25.53746 8.7157,6.75725 25.3559,10.71303 49.7261,11.69873 v 17.78155 h -232.068 v -17.78155 c 16.4846,-1.64716 30.479,-5.12306 42.5019,-10.2072 a 245.53062,245.53062 0 0 0 56.8206,-33.77327 c 18.1058,-14.16298 38.7017,-35.92622 61.762,-65.22492 l 154.4958,-194.8319 -128.8157,-188.7489 c -35.0832,-51.062 -64.8747,-84.6537 -89.2709,-100.4638 -24.5258,-15.9788 -52.6832,-24.3702 -84.485,-25.3689 v -17.9502 h 302.5587 v 17.9502 c -25.7061,0.9987 -43.3191,5.1101 -52.8648,12.5158 -9.4031,7.4058 -14.163,15.6545 -14.163,24.5388 0,12.023 7.73,29.3117 23.0473,52.2033 l 100.4638,150.0472 116.2739,-147.2457 c 13.5016,-17.2887 21.7374,-29.156 24.876,-35.5761 2.9701,-6.5886 4.6043,-13.1773 4.6043,-19.9345 0,-6.7572 -1.9714,-12.6844 -5.9272,-17.7945 a 37.612318,37.612318 0 0 0 -18.2873,-14.163 c -7.4188,-2.8015 -22.7231,-4.28 -45.7703,-4.6172 v -17.9502 h 232.042 v 17.9502 c -18.2614,0.9986 -33.2545,3.7871 -44.9402,8.573 -17.3017,7.4057 -33.2804,17.4573 -47.7806,29.9731 -14.5002,12.5158 -34.9017,35.7447 -61.2822,69.505 z"
     id="path12" />
</svg>

<svg style="vertical-align: -2.819ex;" xmlns="http://www.w3.org/2000/svg" width="3.267ex" height="6.354ex" role="img" focusable="false" viewBox="0 -1562.5 1444 2808.5" xmlns:xlink="http://www.w3.org/1999/xlink" aria-hidden="true"><defs><path id="MJX-4-TEX-LO-2211" d="M60 948Q63 950 665 950H1267L1325 815Q1384 677 1388 669H1348L1341 683Q1320 724 1285 761Q1235 809 1174 838T1033 881T882 898T699 902H574H543H251L259 891Q722 258 724 252Q725 250 724 246Q721 243 460 -56L196 -356Q196 -357 407 -357Q459 -357 548 -357T676 -358Q812 -358 896 -353T1063 -332T1204 -283T1307 -196Q1328 -170 1348 -124H1388Q1388 -125 1381 -145T1356 -210T1325 -294L1267 -449L666 -450Q64 -450 61 -448Q55 -446 55 -439Q55 -437 57 -433L590 177Q590 178 557 222T452 366T322 544L56 909L55 924Q55 945 60 948Z"></path><path id="MJX-4-TEX-I-1D45B" d="M21 287Q22 293 24 303T36 341T56 388T89 425T135 442Q171 442 195 424T225 390T231 369Q231 367 232 367L243 378Q304 442 382 442Q436 442 469 415T503 336T465 179T427 52Q427 26 444 26Q450 26 453 27Q482 32 505 65T540 145Q542 153 560 153Q580 153 580 145Q580 144 576 130Q568 101 554 73T508 17T439 -10Q392 -10 371 17T350 73Q350 92 386 193T423 345Q423 404 379 404H374Q288 404 229 303L222 291L189 157Q156 26 151 16Q138 -11 108 -11Q95 -11 87 -5T76 7T74 17Q74 30 112 180T152 343Q153 348 153 366Q153 405 129 405Q91 405 66 305Q60 285 60 284Q58 278 41 278H27Q21 284 21 287Z"></path><path id="MJX-4-TEX-N-3D" d="M56 347Q56 360 70 367H707Q722 359 722 347Q722 336 708 328L390 327H72Q56 332 56 347ZM56 153Q56 168 72 173H708Q722 163 722 153Q722 140 707 133H70Q56 140 56 153Z"></path><path id="MJX-4-TEX-N-31" d="M213 578L200 573Q186 568 160 563T102 556H83V602H102Q149 604 189 617T245 641T273 663Q275 666 285 666Q294 666 302 660V361L303 61Q310 54 315 52T339 48T401 46H427V0H416Q395 3 257 3Q121 3 100 0H88V46H114Q136 46 152 46T177 47T193 50T201 52T207 57T213 61V578Z"></path><path id="MJX-4-TEX-N-221E" d="M55 217Q55 305 111 373T254 442Q342 442 419 381Q457 350 493 303L507 284L514 294Q618 442 747 442Q833 442 888 374T944 214Q944 128 889 59T743 -11Q657 -11 580 50Q542 81 506 128L492 147L485 137Q381 -11 252 -11Q166 -11 111 57T55 217ZM907 217Q907 285 869 341T761 397Q740 397 720 392T682 378T648 359T619 335T594 310T574 285T559 263T548 246L543 238L574 198Q605 158 622 138T664 94T714 61T765 51Q827 51 867 100T907 217ZM92 214Q92 145 131 89T239 33Q357 33 456 193L425 233Q364 312 334 337Q285 380 233 380Q171 380 132 331T92 214Z"></path></defs><g stroke="currentColor" fill="currentColor" stroke-width="0" transform="matrix(1 0 0 -1 0 0)"><g data-mml-node="math"><g data-mml-node="mstyle"><g data-mml-node="munderover"><g data-mml-node="mo"><use xlink:href="#MJX-4-TEX-LO-2211"></use></g><g data-mml-node="TeXAtom" transform="translate(58, -1087.9) scale(0.707)" data-mjx-texclass="ORD"><g data-mml-node="mi"><use xlink:href="#MJX-4-TEX-I-1D45B"></use></g><g data-mml-node="mo" transform="translate(600, 0)"><use xlink:href="#MJX-4-TEX-N-3D"></use></g><g data-mml-node="mn" transform="translate(1378, 0)"><use xlink:href="#MJX-4-TEX-N-31"></use></g></g><g data-mml-node="mi" transform="translate(368.4, 1150) scale(0.707)"><use xlink:href="#MJX-4-TEX-N-221E"></use></g></g></g></g></g></svg>
